public/assets/delete.svg

<svg xmlns="http://www.w3.org/2000/svg" width="18" height="18" viewBox="0 0 18 18" fill="none">
  <g clip-path="url(#clip0_1013_92603)">
    <path d="M15 3.75C15.1989 3.75 15.3897 3.82902 15.5303 3.96967C15.671 4.11032 15.75 4.30109 15.75 4.5C15.75 4.69891 15.671 4.88968 15.5303 5.03033C15.3897 5.17098 15.1989 5.25 15 5.25H14.25L14.2477 5.30325L13.548 15.1065C13.5211 15.4849 13.3517 15.8391 13.0741 16.0977C12.7965 16.3562 12.4311 16.5 12.0518 16.5H5.9475C5.5681 16.5 5.2028 16.3562 4.92516 16.0977C4.64753 15.8391 4.47819 15.4849 4.45125 15.1065L3.7515 5.304C3.75036 5.28602 3.74986 5.26801 3.75 5.25H3C2.80109 5.25 2.61032 5.17098 2.46967 5.03033C2.32902 4.88968 2.25 4.69891 2.25 4.5C2.25 4.30109 2.32902 4.11032 2.46967 3.96967C2.61032 3.82902 2.80109 3.75 3 3.75H15ZM10.5 1.5C10.6989 1.5 10.8897 1.57902 11.0303 1.71967C11.171 1.86032 11.25 2.05109 11.25 2.25C11.25 2.44891 11.171 2.63968 11.0303 2.78033C10.8897 2.92098 10.6989 3 10.5 3H7.5C7.30109 3 7.11032 2.92098 6.96967 2.78033C6.82902 2.63968 6.75 2.44891 6.75 2.25C6.75 2.05109 6.82902 1.86032 6.96967 1.71967C7.11032 1.57902 7.30109 1.5 7.5 1.5H10.5Z" fill="#FF4D4D"/>
  </g>
  <defs>
    <clipPath id="clip0_1013_92603">
      <rect width="18" height="18" fill="white"/>
    </clipPath>
  </defs>
</svg>

<svg xmlns="http://www.w3.org/2000/svg" width="18" height="18" fill="none"><g clip-path="url(#a)"><path fill="#FF4D4D" d="M15 3.75a.75.75 0 1 1 0 1.5h-.75l-.002.053-.7 9.803a1.5 1.5 0 0 1-1.496 1.394H5.948a1.5 1.5 0 0 1-1.497-1.393l-.7-9.803a.76.76 0 0 1-.001-.054H3a.75.75 0 0 1 0-1.5h12ZM10.5 1.5a.75.75 0 1 1 0 1.5h-3a.75.75 0 0 1 0-1.5h3Z"/></g><defs><clipPath id="a"><path fill="#fff" d="M0 0h18v18H0z"/></clipPath></defs></svg>
